X:1
T: A Jig for Joyce
C:
R:Jig
Q:180
K:D
M:6/8
L:1/16
|:F2G2|A4B2 A2F2D2|d4B2 A2F2D2|F4G2 A2F2D2|C2D2E2 E2F2G2|
A4B2 A2F2D2|d4e2 d2c2B2|A4d2 A2G2F2|E6 D6|
c4d2 e2d2c2|d4f2 A2G2F2|G4A2 B2C2d2|A2G2F2 E4A2|
c4d2 e2d2c2|d4f2 A2G2F2|G2A2B2 A2G2F2|E6 D6:|
